!!!COM: Liban, Jerzy
!!!CDT: 1464–after 1546
!!!ODT: XVI c.
!!!LYR:
!!!OTL: Ortus de Polonia
!!!PPR:
!!!PDT:
!!!PPP:
!!!ENC: dr Marcin Konik
!!!END: 2015-03-14
!!!YOO:
!!!RDF**kern: i=editorial accidental
!!title: @{CDT}, @{OTL}, ed. @{ENC}
!!!YEM: Creative Commons CC/BY/NC/SA 4.0
!!!EED: Marcin Konik
!!!ONB: Encoded in vim by Marcin Konik
!!!CharacterEncoding: utf-8
!!!RDF**kern: l=long note in original notation
!!!RDF**kern: i=editorial accidental
!!muse2ps: z14jc180F
**kern	**kern	**kern	**kern
*part4	*part3	*part2	*part1
*staff4	*staff3	*staff2	*staff1
*clefF4	*clefF4	*clefG2v8	*clefG2
*oclefF4	*oclefF4	*oclefC4	*oclefC1
*k[]	*k[]	*k[]	*k[]
*M2/1	*M2/1	*M2/1	*M2/1
=1-	=1-	=1-	=1-
2D	2D	2d	2a
2AA	2C	2e	2a
2A	2D	2d	2a
4A	2F	4c	2a
4F	.	[4d	.
=2	=2	=2	=2
2G	2E	4d]	2g
.	.	4c	.
2A	2D	2d	2f
2G	2E	2B	2e
2D	2F	2A	2d
=3	=3	=3	=3
2F	2D	2A	2d
2G	2C	2c	2e
2F	2D	2A	2d
2F	2D	2A	2d
=4	=4	=4	=4
2E	2AA	2c	2a
2AA	2C	4c	2a
.	.	4e	.
2A	2D	2d	2f
2F	2D	2A	2f
=5	=5	=5	=5
2G	2C	2c	2e
2F	2D	2A	2d
4F	2F	2A	4c
4D	.	.	2f
2C	2G	2c	.
.	.	.	4e
=6	=6	=6	=6
2D	2F	2A	2f
2D	2F	2A	2r
2D	2F	2A	2a
2BB	2G	2D	2b
=7	=7	=7	=7
2AA	2A	4E	2cc
.	.	4C	.
2AA	2A	2c	2a
2D	2F	2A	4a
.	.	.	2f
2C	2G	2c	.
.	.	.	[4e
=8	=8	=8	=8
2D	2F	2A	4e]
.	.	.	2d
2AA	2E	2A	.
.	.	.	4c
4D	2D	2A	2d
2F	.	.	.
.	2D	2A	2f
4D	.	.	.
=9	=9	=9	=9
2E	2C	2c	2g
4F	2D	4A	2f
2A	.	4d	.
.	2F	4c	2a
4F	.	2d	.
2G	2E	.	2g
.	.	4c	.
=10	=10	=10	=10
2A	2D	2d	2f
2A	2D	2r	2f
2D	2A	2d	2f
2D	2F	2d	2a
=11	=11	=11	=11
2GG	2G	2d	2g
2D	2B	2d	2f
2D	2F	2A	4f
.	.	.	2d
2AA	2E	2A	.
.	.	.	4c
=12	=12	=12	=12
1D	1D	1F	1d
2D	2F	2A	2d
2C	2G	2c	2e
=13	=13	=13	=13
2G	2C	2c	2e
2F	2D	2A	2f
4F	2F	2A	4c
4D	.	.	2f
2C	2G	2c	.
.	.	.	4e
=14	=14	=14	=14
1D	1F	1A	1f
2D	2F	2A	2a
2BB-	2G	2D	2b
=15	=15	=15	=15
2AA	2A	2E	2cc
2AA	2A	2E	2a
2D	2F	2F	4a
.	.	.	2f
2C	2G	2c	.
.	.	.	[4e
=16	=16	=16	=16
2D	2F	1A	4e]
.	.	.	2d
2AA	2E	.	.
.	.	.	4c#
2A	2D	2F	2d
4A	2F	2D	2a
4F	.	.	.
=17	=17	=17	=17
2G	2C	4E	2g
.	.	4C	.
2A	2AA	2c	2f
2G	2C	2c	2e
[2F	2D	[2A	2f
=18	=18	=18	=18
2F]	2D	2A]	2d
2F	2D	2A	2d
2G	2C	2c	2e
2F	2D	2A	2f
=19	=19	=19	=19
2D	2F	1A	4f
.	.	.	2d
2AA	2E	.	.
.	.	.	4c#
2BB-	2D	2F	[1d
2GG	[2D	2B-	.
=20	=20	=20	=20
2FF	1%2D_	2A	1%2d_
2BB-	.	2F	.
2GG	.	2B-	.
[2D	.	[2A	.
=21	=21	=21	=21
1D]	1D]	1A]	1d]
1r	1r	1r	1r
==	==	==	==
*-	*-	*-	*-
